X: 2216
T: The JOLLY SHEPHERDS
Q: "Highland Schottische."
R: Schottishe.
%R: shottish
B: James Kerr "Merry Melodies" v.2 p.24 #216
Z: 2016 John Chambers <jc:trillian.mit.edu>
M: C
L: 1/8
K: Em
ue>uf |\
vg>vfue>uf ve>vduB>uA | (B<d)d>e d2e>f |\
g>fe>f e>dB>A | (B<e)f>g e2g>e |\
d>eg>a b2a>g | a>ga>b d2g>a |\
b>ag>f e>dB>A | B2e2e2 |]
uG>uA |\
B2d2 d>cB>A | B2e2 e>fg>a |\
b>ag>f e>dB>A | B2e2e2 G>A |\
B2d2 d>cB>A | B2e2 e>fg>a |\
b>ag>f e>dB>A | B2e2e2 |]

%%sep 1 1 500
%%sep 1 1 500

